logos/cloudacademy-icon.svg

<?xml version="1.0" encoding="UTF-8"?>
<svg width="256px" height="279px" viewBox="0 0 256 279" version="1.1" xmlns="http://www.w3.org/2000/svg" xmlns:xlink="http://www.w3.org/1999/xlink" preserveAspectRatio="xMidYMid">
    <g>
        <path d="M126.814264,0.00205949676 C153.512769,-0.22808111 176.475583,18.8538323 181.134394,45.1437466 C206.243056,35.5885883 234.572256,45.7097563 247.941937,69.0120657 L247.941937,69.0120657 L247.965687,69.0595648 L248.215058,69.5345563 C261.109838,92.4853318 255.943292,121.35428 235.88903,138.408313 C256.668711,155.491734 262.074919,185.082815 248.678174,208.410174 L248.678174,208.410174 L248.587563,208.565996 C248.524323,208.668151 248.45547,208.766777 248.381305,208.861416 C235.106158,231.584158 207.491349,241.576851 182.749364,232.610987 C178.706261,259.11101 156.031012,278.761126 129.225349,278.996391 C102.419687,279.227465 79.4060402,259.974775 74.9025616,233.549095 C50.553256,242.813011 23.1757774,233.573805 9.35029047,211.753174 L9.25,211.592 L9.65061465,212.257604 L8.08314295,209.704526 C7.98832227,209.548499 7.90497878,209.385781 7.83377246,209.217659 C-5.07358648,186.271269 0.0890833043,157.396164 20.1479251,140.343903 C-0.681482807,123.264078 -6.09274376,93.6202156 7.35878103,70.2826678 L7.35878103,70.2826678 L7.44850163,70.1287353 C7.51183382,70.0267002 7.5804437,69.9264242 7.64377589,69.8314259 C20.9523947,47.1418991 48.5421729,37.1600691 73.2875907,46.0818547 C77.4883638,19.7148751 100.115759,0.236394094 126.814264,0.00205949676 Z M127.115994,9.56656827 C102.850421,9.65870527 83.2537188,29.4042698 83.3455341,53.6698427 C83.4113433,54.6831453 83.1933995,55.6947334 82.7161705,56.5910399 C82.0460404,57.8514953 80.9014034,58.7930746 79.535379,59.2075616 C78.1693547,59.6220486 76.6944891,59.4752939 75.4369269,58.7997501 L75.4369269,58.7997501 L74.812011,58.4722633 C54.1409789,47.8466669 28.7000711,55.1690203 16.8704843,75.2700777 C16.8062577,75.4121172 16.7349187,75.550832 16.6567382,75.6856952 L16.6567382,75.6856952 L16.3043134,76.3091134 C4.85858337,96.937374 11.6408871,122.991918 31.8089646,135.392117 C32.6946827,135.83667 33.4389738,136.51928 33.9583008,137.363332 C35.5253407,139.897061 34.756799,143.220341 32.2364569,144.808822 L32.2364569,144.808822 L30.986,145.617 L30.466369,145.974268 C12.09884,158.78137 6.15127138,183.436449 16.8628149,203.267742 L17.2029783,203.885881 C17.2968212,204.015964 17.3840147,204.150718 17.4642236,204.289623 L17.4642236,204.289623 L17.8251853,204.906218 C29.8775534,225.122126 55.7885506,232.278618 76.541282,220.997447 C78.1675355,219.929061 80.2446491,219.824484 81.9699878,220.724125 C83.6953266,221.623766 84.798657,223.386718 84.8536319,225.331743 L84.8536319,225.331743 L84.9248806,227.18421 L84.8298823,225.331743 C84.8892767,241.028817 93.3184483,255.501824 106.94221,263.298924 C120.565971,271.096024 137.314549,271.032651 150.878917,263.132677 C164.443284,255.232703 172.76269,240.696323 172.703296,224.999249 C172.565766,223.04476 173.501803,221.17007 175.146725,220.105564 C176.791646,219.041057 178.885266,218.955114 180.611903,219.881217 L180.611903,219.881217 L181.236382,220.207849 C201.892808,230.805612 227.299424,223.492579 239.130847,203.422764 L239.130847,203.422764 L239.344593,202.995272 L239.368342,202.995272 C251.298322,182.29033 244.600637,155.8521 224.25174,143.324474 C222.511688,142.438193 221.381979,140.685375 221.293531,138.734618 C221.205084,136.783861 222.171538,134.936003 223.824248,133.895894 L223.824248,133.895894 L223.836123,133.895894 C243.799724,121.353718 250.422037,95.3606145 238.893351,74.7950863 C238.803376,74.6689519 238.720136,74.5381465 238.64398,74.4032184 L238.64398,74.4032184 L238.283514,73.785954 C226.247097,53.5481706 200.312849,46.3906104 179.566922,57.7072698 C178.738583,58.2506144 177.778078,58.5584686 176.788222,58.5978787 C173.808165,58.6911905 171.315779,56.3529182 171.218948,53.372973 L171.218948,53.372973 L171.218948,53.3373487 C171.127132,29.0717759 151.381567,9.47507391 127.115994,9.56656827 Z M92.8535129,151.583381 C95.5722251,146.235431 102.00111,143.950864 107.484898,146.383975 C112.968686,148.817086 115.588865,155.116647 113.448116,160.721035 C111.536275,164.805961 111.429402,167.216543 112.723754,170.090241 L112.723754,170.090241 L122.556076,191.025488 C124.479791,195.241037 128.647841,196.666011 132.055905,197.497246 L132.055905,197.497246 L132.04403,197.497246 C142.743217,200.074981 150.473215,209.382072 151.043168,220.372635 C151.613121,231.363199 144.8873,241.419945 134.512142,245.090562 C124.136984,248.761178 112.583225,245.171544 106.114791,236.267798 C99.6463573,227.364052 99.8036394,215.266528 106.501366,206.533958 C109.244442,202.947773 110.063802,200.442193 109.018821,195.941649 L109.018821,195.941649 L103.746416,173.308308 C103.022054,170.38711 101.525831,168.926512 97.2746577,166.468431 C92.0774076,163.471673 90.1348007,156.931331 92.8535129,151.583381 Z M96.854944,115.73359 C102.879223,115.421572 108.091354,119.885052 108.709762,125.885624 C109.328169,131.886197 105.135916,137.318873 99.1746234,138.242066 C94.6859544,138.610184 92.548493,139.726414 90.6960264,142.291368 L90.6960264,142.291368 L77.5268892,161.291025 C74.8550624,165.067206 75.6981722,169.401503 76.6956542,172.773942 C79.8101472,183.373838 75.5788437,194.759484 66.2977537,200.752748 C57.0166636,206.746013 44.8984379,205.918075 36.5187255,198.718195 C28.1390132,191.518315 25.4955728,179.662975 30.0228007,169.585175 C34.5500285,159.507375 45.1686142,153.609705 56.1166507,155.092387 C60.5934449,155.686126 63.1702734,155.15176 66.5308377,151.993068 L66.5308377,151.993068 L83.4405324,136.09273 C85.6136182,134.002767 86.1123592,131.972179 86.1123592,127.056018 C86.1075418,121.023666 90.8306646,116.045607 96.854944,115.73359 Z M181.063145,161.789766 C186.822329,155.681182 195.283623,152.905449 203.542114,154.415524 C215.302794,156.539253 223.903353,166.708068 224.045958,178.658109 C224.188563,190.60815 215.833116,200.979307 204.126465,203.383083 C192.419814,205.786858 180.653632,199.547357 176.075735,188.508033 C174.353891,184.316234 172.608298,182.356894 168.190877,181.015044 L168.190877,181.015044 L146.032527,174.28204 C143.13508,173.450805 141.140116,174.020795 136.900817,176.478875 C134.59072,177.828701 131.872972,178.304834 129.241581,177.820726 C123.244753,176.559414 119.338037,170.758085 120.424073,164.72705 C121.510109,158.696016 127.195139,154.621916 133.255258,155.531754 C135.91921,156.007361 138.320061,157.433525 140.012011,159.545431 C142.576965,163.262239 144.619428,164.568465 147.730622,164.865335 L147.730622,164.865335 L170.732081,166.800925 C175.327623,167.240292 178.688188,164.33097 181.063145,161.789766 Z M179.880775,77.8248523 C187.664481,68.9966339 200.589493,66.8026559 210.864707,72.6176842 C221.258028,78.4995518 226.02233,90.9242466 222.226236,102.247106 C218.430142,113.569966 207.139416,120.612062 195.301013,119.040537 C190.836093,118.434923 188.259265,118.981164 184.898701,122.139857 L184.898701,122.139857 L168.012756,138.02832 C165.83967,140.130157 165.340929,142.14887 165.340929,147.076906 C165.346141,152.082722 162.058643,156.495912 157.260796,157.923806 C152.462949,159.351699 147.297334,157.454252 144.564558,153.26019 C141.831783,149.066129 142.182642,143.574245 145.426913,139.762038 C147.169334,137.687682 149.60268,136.312862 152.278665,135.890858 C156.779208,135.52274 158.91667,134.40651 160.733512,131.841556 L160.733512,131.841556 L173.890774,112.841899 C176.574476,109.053843 175.719491,104.731421 174.733884,101.347107 C172.340065,93.280885 174.175267,84.5513956 179.614421,78.131901 L179.614421,78.131901 Z M125.192279,27.3909217 C134.71605,27.3847309 143.411723,32.8035678 147.602084,41.3559441 C151.792446,49.9083203 150.745673,60.1006105 144.904423,67.6227158 C142.196972,71.1851515 141.341987,73.6907312 142.446342,78.2506489 L142.446342,78.2506489 L147.718747,100.812742 C148.443109,103.745814 149.939332,105.206412 154.17863,107.652618 C159.376334,110.647007 161.321709,117.185395 158.606355,122.534165 C155.891002,127.882936 149.46463,130.171328 143.979759,127.742608 C138.494888,125.313888 135.869881,119.017513 138.005172,113.411889 C139.917013,109.326963 140.035761,106.904507 138.729534,104.042683 L138.729534,104.042683 L128.909087,83.0955614 C126.973496,78.8800125 122.817321,77.4550383 119.409258,76.6356781 L119.409258,76.6356781 L119.361759,76.6594276 C108.648569,74.0500098 100.910638,64.7291284 100.317033,53.7187184 C99.7234285,42.7083083 106.414386,32.6095216 116.78493,28.8634156 C119.479943,27.8855952 122.325362,27.3872449 125.192279,27.3909217 Z M47.3232415,70.7480659 C59.0315452,68.3426415 70.8000184,74.5833049 75.377553,85.6248908 C77.0993969,89.8048153 78.8568652,91.7760297 83.2624106,93.1178805 L83.2624106,93.1178805 L105.432635,99.8508839 C108.318208,100.682119 110.325047,100.100254 114.564346,97.6421738 C119.780215,94.6248218 126.445378,96.2186016 129.732059,101.269091 C133.018739,106.31958 131.77662,113.059141 126.905405,116.606108 C122.03419,120.153075 115.238773,119.266033 111.441277,114.587493 C108.876323,110.870685 106.845735,109.564459 103.722666,109.267589 L103.722666,109.267589 L80.7330813,107.331999 C76.1375393,106.892632 72.7769749,109.790079 70.4020178,112.343158 C64.6368038,118.442243 56.1807705,121.21625 47.9230487,119.7174 C36.1593402,117.599476 27.5528607,107.432306 27.4064658,95.4803596 C27.2600709,83.5284138 35.6149379,73.1534903 47.3232415,70.7480659 Z" fill="#005EEC"></path>
    </g>
</svg>

<svg preserveAspectRatio="xMidYMid" viewBox="0 0 256 279" xmlns="http://www.w3.org/2000/svg">
  <path fill="#005EEC" d="M126.814.002c26.699-.23 49.662 18.852 54.32 45.142 25.11-9.555 53.438.566 66.808 23.868l.024.048.25.475c12.894 22.95 7.727 51.82-12.327 68.873 20.78 17.084 26.186 46.675 12.79 70.002l-.091.156c-.064.102-.133.2-.207.295-13.275 22.723-40.89 32.716-65.632 23.75-4.043 26.5-26.718 46.15-53.524 46.385-26.805.231-49.819-19.021-54.322-45.447-24.35 9.264-51.727.025-65.553-21.796l-.1-.161.4.666-1.567-2.553a3.764 3.764 0 0 1-.25-.487C-5.073 186.27.09 157.396 20.149 140.344c-20.83-17.08-26.24-46.724-12.79-70.061l.09-.154c.064-.102.132-.203.196-.298 13.308-22.69 40.898-32.67 65.644-23.75C77.488 19.716 100.116.237 126.814.003Zm.302 9.565c-24.266.092-43.862 19.837-43.77 44.103a5.462 5.462 0 0 1-.63 2.921 5.367 5.367 0 0 1-7.28 2.209l-.624-.328C54.141 47.847 28.7 55.17 16.87 75.27c-.064.142-.135.28-.213.416l-.353.623C4.86 96.937 11.641 122.992 31.81 135.392a5.332 5.332 0 0 1 2.15 1.971 5.427 5.427 0 0 1-1.723 7.446l-1.25.808-.52.357C12.1 158.781 6.151 183.436 16.863 203.268l.34.618c.094.13.181.265.261.404l.361.616c12.053 20.216 37.964 27.373 58.716 16.091a5.367 5.367 0 0 1 8.313 4.335l.07 1.852-.094-1.852a43.937 43.937 0 1 0 87.873-.333 5.38 5.38 0 0 1 7.909-5.118l.624.327c20.657 10.598 46.063 3.285 57.895-16.785l.214-.428h.023c11.93-20.705 5.233-47.143-15.116-59.67a5.427 5.427 0 0 1-.428-9.43h.012c19.964-12.541 26.586-38.534 15.057-59.1a4.394 4.394 0 0 1-.249-.392l-.36-.617c-12.037-20.238-37.971-27.395-58.717-16.079a5.462 5.462 0 0 1-2.779.89 5.403 5.403 0 0 1-5.57-5.224v-.036c-.09-24.265-19.836-43.862-44.102-43.77ZM92.854 151.583a11.281 11.281 0 0 1 20.594 9.138c-1.912 4.085-2.019 6.496-.724 9.37l9.832 20.934c1.924 4.216 6.092 5.641 9.5 6.472h-.012a24.854 24.854 0 1 1-25.543 9.037c2.743-3.586 3.563-6.092 2.518-10.592l-5.273-22.634c-.724-2.92-2.22-4.381-6.471-6.84a11.281 11.281 0 0 1-4.421-14.885Zm4-35.85a11.329 11.329 0 0 1 2.32 22.51c-4.488.367-6.626 1.483-8.478 4.048l-13.17 19c-2.67 3.776-1.828 8.11-.83 11.483a24.937 24.937 0 1 1-20.58-17.682c4.477.594 7.054.06 10.415-3.099l16.91-15.9c2.173-2.09 2.671-4.12 2.671-9.037a11.329 11.329 0 0 1 10.743-11.322Zm84.21 46.057a24.77 24.77 0 0 1 22.478-7.374c11.76 2.123 20.361 12.292 20.504 24.242.143 11.95-8.213 22.321-19.92 24.725-11.706 2.404-23.472-3.836-28.05-14.875-1.722-4.192-3.468-6.151-7.885-7.493l-22.158-6.733c-2.898-.831-4.893-.261-9.132 2.197a11.174 11.174 0 0 1-7.66 1.342c-5.996-1.262-9.903-7.063-8.817-13.094 1.086-6.031 6.771-10.105 12.831-9.195a11.174 11.174 0 0 1 6.757 4.013c2.565 3.717 4.607 5.023 7.719 5.32l23.001 1.936c4.596.44 7.956-2.47 10.331-5.011Zm-1.183-83.965c7.783-8.828 20.708-11.022 30.984-5.207 10.393 5.882 15.157 18.306 11.361 29.63-3.796 11.322-15.087 18.364-26.925 16.793-4.465-.606-7.042-.06-10.402 3.099l-16.886 15.888c-2.173 2.102-2.672 4.12-2.672 9.049a11.305 11.305 0 1 1-19.914-7.315 11.234 11.234 0 0 1 6.852-3.871c4.5-.368 6.638-1.484 8.455-4.05l13.157-19c2.683-3.787 1.828-8.11.843-11.494a24.937 24.937 0 0 1 4.88-23.215ZM125.192 27.39a24.937 24.937 0 0 1 19.712 40.232c-2.707 3.562-3.562 6.068-2.458 10.628l5.273 22.562c.724 2.933 2.22 4.393 6.46 6.84a11.281 11.281 0 1 1-16.174 5.759c1.912-4.085 2.03-6.507.725-9.37l-9.82-20.946c-1.937-4.216-6.093-5.641-9.5-6.46l-.048.023a24.996 24.996 0 0 1-2.577-47.796 24.558 24.558 0 0 1 8.407-1.472ZM47.323 70.748c11.709-2.405 23.477 3.835 28.055 14.877 1.721 4.18 3.479 6.151 7.884 7.493l22.17 6.733c2.886.831 4.893.25 9.132-2.209a11.329 11.329 0 1 1-3.123 16.945c-2.565-3.716-4.595-5.023-7.718-5.32l-22.99-1.935c-4.595-.44-7.956 2.458-10.331 5.011a24.83 24.83 0 0 1-22.479 7.374c-11.764-2.118-20.37-12.285-20.517-24.237-.146-11.952 8.209-22.327 19.917-24.732Z"/>
</svg>
